X:204
T:Rosas Das Rosas (Cantiga 10)
C:Las Cantigas de Santa Maria, 1252
C:Anon., Alphonse X (1221-1284)
R:Cantigas
M:6/8
L:1/8
Q:1/4=120
K:F 
V:1
D3 CD2 | E/2F/2G2 F/2E/2D2 | D3 CD2 | F6 | 
F3 GA2 | AG2 F/2E/2D2 | C3 DE2 | D6 | 
c3 cd2 | cB2 AGA | F3 GAB | A6 | 
c3 cd2 | cB2 AGA | F3 GAB | A6 | 
F3 EF2 | G3 GA2 | FED DE2 | C6 | 
F3 GA2 | AG2 F/2E/2D2 | C3 DE2 | D6 |]
V:2
A,3 G,A,2 | =B,/2C/2D2 C/2=B,/2A,2 | A,3 G,A,2 | C6 | 
C3 DE2 | ED2 C/2=B,/2A,2 | G,3 A,=B,2 | A,6 | 
A,6- | A,6- | A,6- | A,6 | 
A,6- | A,6- | A,6- | A,6 | 
A,6- | A,6- | A,6- | A,6 | 
A,6- | A,6- | A,6- | A,6 |]
V:3 clef=perc stafflines=1 staffscale=0.8
B3 BB2 | B3 BB2 | B3 BB2 | B3 BB2 | 
B3 BB2 | B3 BB2 | B3 BB2 | B3 BB2 | 
B3 BB2 | B3 BB2 | B3 BB2 | B3 BB2 | 
B3 BB2 | B3 BB2 | B3 BB2 | B3 BB2 | 
B3 BB2 | B3 BB2 | B3 BB2 | B3 BB2 | 
B3 BB2 | B3 BB2 | B3 BB2 | B3 BB2 |]





